X:4582
T:Dusty Miller
M:6/8
L:1/8
R:Jig
N:In manuscript time signature is given as cut common time and quavers
N:are grouped oddl
K:G
B>cdB AG|FAAc BA|B>cdB AG|DGGBAG:||:Bcdefg|aAAcBA|e2agf2|d2d2fg|BGGBAG:|
